svg/editor/list_ordered_fill.svg

<?xml version="1.0" encoding="UTF-8"?>
<svg width="24px" height="24px" viewBox="0 0 24 24" version="1.1" xmlns="http://www.w3.org/2000/svg" xmlns:xlink="http://www.w3.org/1999/xlink">
    <title>list_ordered_fill</title>
    <g id="页面-1" stroke="none" stroke-width="1" fill="none" fill-rule="evenodd">
        <g id="Editor" transform="translate(-768.000000, -48.000000)" fill-rule="nonzero">
            <g id="list_ordered_fill" transform="translate(768.000000, 48.000000)">
                 <path d="M24,0 L24,24 L0,24 L0,0 L24,0 Z M12.5934901,23.257841 L12.5819402,23.2595131 L12.5108777,23.2950439 L12.4918791,23.2987469 L12.4918791,23.2987469 L12.4767152,23.2950439 L12.4056548,23.2595131 C12.3958229,23.2563662 12.3870493,23.2590235 12.3821421,23.2649074 L12.3780323,23.275831 L12.360941,23.7031097 L12.3658947,23.7234994 L12.3769048,23.7357139 L12.4804777,23.8096931 L12.4953491,23.8136134 L12.4953491,23.8136134 L12.5071152,23.8096931 L12.6106902,23.7357139 L12.6232938,23.7196733 L12.6232938,23.7196733 L12.6266527,23.7031097 L12.609561,23.275831 C12.6075724,23.2657013 12.6010112,23.2592993 12.5934901,23.257841 L12.5934901,23.257841 Z M12.8583906,23.1452862 L12.8445485,23.1473072 L12.6598443,23.2396597 L12.6498822,23.2499052 L12.6498822,23.2499052 L12.6471943,23.2611114 L12.6650943,23.6906389 L12.6699349,23.7034178 L12.6699349,23.7034178 L12.678386,23.7104931 L12.8793402,23.8032389 C12.8914285,23.8068999 12.9022333,23.8029875 12.9078286,23.7952264 L12.9118235,23.7811639 L12.8776777,23.1665331 C12.8752882,23.1545897 12.8674102,23.1470016 12.8583906,23.1452862 L12.8583906,23.1452862 Z M12.1430473,23.1473072 C12.1332178,23.1423925 12.1221763,23.1452606 12.1156365,23.1525954 L12.1099173,23.1665331 L12.0757714,23.7811639 C12.0751323,23.7926639 12.0828099,23.8018602 12.0926481,23.8045676 L12.108256,23.8032389 L12.3092106,23.7104931 L12.3186497,23.7024347 L12.3186497,23.7024347 L12.3225043,23.6906389 L12.340401,23.2611114 L12.337245,23.2485176 L12.337245,23.2485176 L12.3277531,23.2396597 L12.1430473,23.1473072 Z" id="MingCute" fill-rule="nonzero"></path>
                <path d="M5.43576,16.7201 C6.24693,16.7201 6.90006,17.3805 6.90006,18.1868 C6.90006,18.4773 6.81334,18.7582 6.65581,18.9952 C6.81328,19.2321 6.89997,19.513 6.89997,19.8035 C6.89997,20.6097 6.24685,21.2701 5.43567,21.2701 C4.84927,21.2701 4.30154,21.0591 4.0556,20.4795 C3.90259,20.1189 3.94402,19.6904 4.35318,19.5168 C4.68364,19.3766 5.06521,19.5308 5.20544,19.8612 C5.23345,19.9273 5.29823,19.9727 5.36993,19.971 C5.48374,19.9684 5.59997,19.9445 5.59997,19.8035 C5.59997,19.7025833 5.52687972,19.6598611 5.44355218,19.6484236 L5.39283,19.6451 C5.03384,19.6451 4.74283,19.3541 4.74283,18.9951 C4.74283,18.7504 4.87806,18.5373 5.07787,18.4264 C5.14009,18.3918667 5.20856778,18.3672444 5.28117296,18.3546667 L5.39291,18.3451 C5.49481,18.3451 5.60006,18.3078 5.60006,18.1868 C5.60006,18.0457 5.48385,18.0218 5.37005,18.0192 C5.29835,18.0175 5.23357,18.063 5.20556,18.129 C5.06533,18.4595 4.68376,18.6137 4.3533,18.4735 C3.94414,18.2998 3.90271,17.8713 4.05572,17.5107 C4.30166,16.9311 4.84937,16.7201 5.43576,16.7201 Z M20,17.5001 C20.8284,17.5001 21.5,18.1717 21.5,19.0001 C21.5,19.8285 20.8284,20.5001 20,20.5001 L9,20.5001 C8.17157,20.5001 7.5,19.8285 7.5,19.0001 C7.5,18.1717 8.17157,17.5001 9,17.5001 L20,17.5001 Z M6.08078,9.94527 C6.72558,10.2677 7.05451,11.0088 6.88063,11.7043 C6.81679,11.9597 6.68907,12.1946 6.50947,12.387 L5.95592,12.9801 L6.4256,12.9801 C6.78459,12.9801 7.0756,13.2711 7.0756,13.6301 C7.0756,13.9891 6.78459,14.2801 6.4256,14.2801 L4.5731,14.2801 C4.21155,14.2801 3.91846,13.987 3.91846,13.6255 C3.91846,13.4195 3.9468,13.2275 4.09452,13.0692 L5.5591,11.5 C5.70059,11.3484 5.58869,11.0272 5.35616,11.0853 C5.268656,11.10722 5.2330304,11.17394 5.22228032,11.2502344 L5.21846,11.3087 C5.21846,11.6677 4.92744,11.9587 4.56846,11.9587 C4.20947,11.9587 3.91846,11.6677 3.91846,11.3087 C3.91846,10.6174 4.357,9.99512 5.04087,9.82415 C5.3917,9.73644 5.75867,9.78422 6.08078,9.94527 Z M20,10.5001 C20.8284,10.5001 21.5,11.1717 21.5,12.0001 C21.5,12.7797706 20.9050879,13.4205457 20.1444558,13.4932332 L20,13.5001 L9,13.5001 C8.17157,13.5001 7.5,12.8285 7.5,12.0001 C7.5,11.2204294 8.09488554,10.5796543 8.85553954,10.5069668 L9,10.5001 L20,10.5001 Z M6.15004,3.3895 L6.15004,6.63016 C6.15004,6.98914 5.85903,7.28016 5.50004,7.28016 C5.14106,7.28016 4.85004,6.98914 4.85004,6.63016 L4.85004,4.52258 C4.60765,4.56015 4.35422,4.45823 4.20921,4.24071 C4.01008,3.94202 4.0908,3.53845 4.38949,3.33932 L5.13172,2.84451 C5.56699,2.55432 6.15004,2.86634 6.15004,3.3895 Z M20,3.50012 C20.8284,3.50012 21.5,4.17169 21.5,5.00012 C21.5,5.77981882 20.9050879,6.420569 20.1444558,6.49325345 L20,6.50012 L9,6.50012 C8.17157,6.50012 7.5,5.82855 7.5,5.00012 C7.5,4.22042118 8.09488554,3.579671 8.85553954,3.50698655 L9,3.50012 L20,3.50012 Z" id="形状" fill="#09244B"></path>
            </g>
        </g>
    </g>
</svg>

<svg xmlns="http://www.w3.org/2000/svg" width="24" height="24"><g fill="none" fill-rule="nonzero"><path d="M24 0v24H0V0h24ZM12.593 23.258l-.011.002-.071.035-.02.004-.014-.004-.071-.035c-.01-.004-.019-.001-.024.005l-.004.01-.017.428.005.02.01.013.104.074.015.004.012-.004.104-.074.012-.016.004-.017-.017-.427c-.002-.01-.009-.017-.017-.018Zm.265-.113-.013.002-.185.093-.01.01-.003.011.018.43.005.012.008.007.201.093c.012.004.023 0 .029-.008l.004-.014-.034-.614c-.003-.012-.01-.02-.02-.022Zm-.715.002a.023.023 0 0 0-.027.006l-.006.014-.034.614c0 .012.007.02.017.024l.015-.002.201-.093.01-.008.004-.011.017-.43-.003-.012-.01-.01-.184-.092Z"/><path fill="#09244B" d="M5.436 16.72a1.466 1.466 0 0 1 1.22 2.275 1.466 1.466 0 0 1-1.22 2.275c-.587 0-1.134-.21-1.38-.79-.153-.361-.112-.79.297-.963a.65.65 0 0 1 .852.344.177.177 0 0 0 .165.11c.114-.003.23-.026.23-.168 0-.1-.073-.143-.156-.155l-.051-.003a.65.65 0 0 1-.112-1.29l.112-.01c.102 0 .207-.037.207-.158 0-.141-.116-.165-.23-.168a.177.177 0 0 0-.164.11.65.65 0 0 1-.853.345c-.409-.174-.45-.603-.297-.963.246-.58.793-.79 1.38-.79ZM20 17.5a1.5 1.5 0 0 1 0 3H9a1.5 1.5 0 0 1 0-3h11ZM6.08 9.945a1.552 1.552 0 0 1 .43 2.442l-.554.593h.47a.65.65 0 1 1 0 1.3H4.573a.655.655 0 0 1-.655-.654c0-.207.029-.399.177-.557L5.559 11.5c.142-.152.03-.473-.203-.415-.087.022-.123.089-.134.165l-.004.059a.65.65 0 1 1-1.3 0c0-.692.439-1.314 1.123-1.485.35-.088.718-.04 1.04.121ZM20 10.5a1.5 1.5 0 0 1 .144 2.993L20 13.5H9a1.5 1.5 0 0 1-.144-2.993L9 10.5h11ZM6.15 3.39v3.24a.65.65 0 0 1-1.3 0V4.523a.65.65 0 0 1-.46-1.184l.742-.494a.655.655 0 0 1 1.018.544ZM20 3.5a1.5 1.5 0 0 1 .144 2.993L20 6.5H9a1.5 1.5 0 0 1-.144-2.993L9 3.5h11Z"/></g></svg>
